X: 1
T: the Hay Makers
O: 1753
M: 6/8
L: 1/8
R: Jig
N: James Oswald published this tune for the 1753 London pantomime Fortunatus in 1753
B: Miss Stewart’s Collection of 1781
B: James Hulbert’s Complete Fifer’s Museum (Greenfield, Mass., 1807)
B: Howe "Complete Preceptor for the Accordeon", 1843; p.6
Z: AK/Fiddler's  Companion
K: G
D | GAB ABc | BAG AFD | GAB ABc | BdB G2 :: B2d g2d | ege dBG |
B2d g2d | ege d3 :: B2e dBG | ABA dBG | B2e dBG | ABA G3 :|
